public/icons/social-media/github.svg

<svg width="100" height="100" viewBox="0 0 100 100" fill="none" xmlns="http://www.w3.org/2000/svg">
<rect width="100" height="100" rx="30" fill="url(#paint0_linear_9_35)"/>
<g opacity="0.25" filter="url(#filter0_f_9_35)">
<rect x="15.0655" y="50" width="68.1223" height="42.5764" rx="21.2882" fill="url(#paint1_linear_9_35)"/>
</g>
<rect x="13" y="12.9999" width="73.7991" height="73.7991" rx="30" fill="url(#paint2_linear_9_35)"/>
<g filter="url(#filter1_i_9_35)">
<path fill-rule="evenodd" clip-rule="evenodd" d="M50 30.9976C38.95 30.9976 30 39.912 30 50.918C30 59.7328 35.725 67.1781 43.675 69.8175C44.675 69.9918 45.05 69.3942 45.05 68.8713C45.05 68.3982 45.025 66.8295 45.025 65.1611C40 66.0825 38.7 63.941 38.3 62.8205C38.075 62.2478 37.1 60.4798 36.25 60.0067C35.55 59.6332 34.55 58.7119 36.225 58.687C37.8 58.6621 38.925 60.1312 39.3 60.7288C41.1 63.7418 43.975 62.8952 45.125 62.3723C45.3 61.0774 45.825 60.2059 46.4 59.7079C41.95 59.2099 37.3 57.4918 37.3 49.8722C37.3 47.7058 38.075 45.913 39.35 44.5186C39.15 44.0206 38.45 41.9787 39.55 39.2396C39.55 39.2396 41.225 38.7167 45.05 41.2815C46.65 40.8333 48.35 40.6092 50.05 40.6092C51.75 40.6092 53.45 40.8333 55.05 41.2815C58.875 38.6918 60.55 39.2396 60.55 39.2396C61.65 41.9787 60.95 44.0206 60.75 44.5186C62.025 45.913 62.8 47.6809 62.8 49.8722C62.8 57.5167 58.125 59.2099 53.675 59.7079C54.4 60.3304 55.025 61.5257 55.025 63.3932C55.025 66.0576 55 68.199 55 68.8713C55 69.3942 55.375 70.0167 56.375 69.8175C64.275 67.1781 70 59.7079 70 50.918C70 39.912 61.05 30.9976 50 30.9976Z" fill="white"/>
</g>
<defs>
<filter id="filter0_f_9_35" x="9.60551" y="44.54" width="79.0423" height="53.4964" filterUnits="userSpaceOnUse" color-interpolation-filters="sRGB">
<feFlood flood-opacity="0" result="BackgroundImageFix"/>
<feBlend mode="normal" in="SourceGraphic" in2="BackgroundImageFix" result="shape"/>
<feGaussianBlur stdDeviation="2.73" result="effect1_foregroundBlur_9_35"/>
</filter>
<filter id="filter1_i_9_35" x="27" y="28" width="45" height="45.5" filterUnits="userSpaceOnUse" color-interpolation-filters="sRGB">
<feFlood flood-opacity="0" result="BackgroundImageFix"/>
<feBlend mode="normal" in="SourceGraphic" in2="BackgroundImageFix" result="shape"/>
<feColorMatrix in="SourceAlpha" type="matrix" values="0 0 0 0 0 0 0 0 0 0 0 0 0 0 0 0 0 0 127 0" result="hardAlpha"/>
<feOffset dy="0.5"/>
<feGaussianBlur stdDeviation="1.25"/>
<feComposite in2="hardAlpha" operator="arithmetic" k2="-1" k3="1"/>
<feColorMatrix type="matrix" values="0 0 0 0 0 0 0 0 0 0 0 0 0 0 0 0 0 0 0.1 0"/>
<feBlend mode="normal" in2="shape" result="effect1_innerShadow_9_35"/>
</filter>
<linearGradient id="paint0_linear_9_35" x1="8.40611" y1="6.55022" x2="82.6419" y2="100" gradientUnits="userSpaceOnUse">
<stop stop-color="#FBFBFC"/>
<stop offset="1" stop-color="#DBDDE8"/>
</linearGradient>
<linearGradient id="paint1_linear_9_35" x1="53.8347" y1="93.8462" x2="39.9491" y2="44.9043" gradientUnits="userSpaceOnUse">
<stop offset="0.0729167" stop-color="#1B1F23"/>
<stop offset="0.973958" stop-color="#363C42"/>
</linearGradient>
<linearGradient id="paint2_linear_9_35" x1="55" y1="88.9999" x2="20.5" y2="12.9999" gradientUnits="userSpaceOnUse">
<stop offset="0.0729167" stop-color="#1B1F23"/>
<stop offset="0.973958" stop-color="#363C42"/>
</linearGradient>
</defs>
</svg>

<svg xmlns="http://www.w3.org/2000/svg" width="100" height="100" fill="none" xmlns:v="https://vecta.io/nano"><rect width="100" height="100" rx="30" fill="url(#C)"/><g opacity=".25" filter="url(#A)"><rect x="15.066" y="50" width="68.122" height="42.576" rx="21.288" fill="url(#D)"/></g><rect x="13" y="13" width="73.799" height="73.799" rx="30" fill="url(#E)"/><g filter="url(#B)"><path fill-rule="evenodd" d="M50 30.998c-11.05 0-20 8.914-20 19.92 0 8.815 5.725 16.26 13.675 18.899 1 .174 1.375-.423 1.375-.946l-.025-3.71c-5.025.921-6.325-1.22-6.725-2.341-.225-.573-1.2-2.341-2.05-2.814-.7-.373-1.7-1.295-.025-1.32 1.575-.025 2.7 1.444 3.075 2.042 1.8 3.013 4.675 2.166 5.825 1.644.175-1.295.7-2.166 1.275-2.664-4.45-.498-9.1-2.216-9.1-9.836 0-2.166.775-3.959 2.05-5.354-.2-.498-.9-2.54.2-5.279 0 0 1.675-.523 5.5 2.042 1.6-.448 3.3-.672 5-.672s3.4.224 5 .672c3.825-2.59 5.5-2.042 5.5-2.042 1.1 2.739.4 4.781.2 5.279 1.275 1.394 2.05 3.162 2.05 5.354 0 7.645-4.675 9.338-9.125 9.836.725.622 1.35 1.818 1.35 3.685L55 68.871c0 .523.375 1.145 1.375.946C64.275 67.178 70 59.708 70 50.918c0-11.006-8.95-19.92-20-19.92z" fill="#fff"/></g><defs><filter id="A" x="9.606" y="44.54" width="79.042" height="53.496" filterUnits="userSpaceOnUse" color-interpolation-filters="sRGB"><feFlood flood-opacity="0"/><feBlend in="SourceGraphic"/><feGaussianBlur stdDeviation="2.73"/></filter><filter id="B" x="27" y="28" width="45" height="45.5" filterUnits="userSpaceOnUse" color-interpolation-filters="sRGB"><feFlood flood-opacity="0"/><feBlend in="SourceGraphic" result="B"/><feColorMatrix in="SourceAlpha" values="0 0 0 0 0 0 0 0 0 0 0 0 0 0 0 0 0 0 127 0" result="C"/><feOffset dy="0.5"/><feGaussianBlur stdDeviation="1.25"/><feComposite in2="C" operator="arithmetic" k2="-1" k3="1"/><feColorMatrix values="0 0 0 0 0 0 0 0 0 0 0 0 0 0 0 0 0 0 0.1 0"/><feBlend in2="B"/></filter><linearGradient id="C" x1="8.406" y1="6.55" x2="82.642" y2="100" gradientUnits="userSpaceOnUse"><stop stop-color="#fbfbfc"/><stop offset="1" stop-color="#dbdde8"/></linearGradient><linearGradient id="D" x1="53.835" y1="93.846" x2="39.949" y2="44.904" gradientUnits="userSpaceOnUse"><stop offset=".073" stop-color="#1b1f23"/><stop offset=".974" stop-color="#363c42"/></linearGradient><linearGradient id="E" x1="55" y1="89" x2="20.5" y2="13" gradientUnits="userSpaceOnUse"><stop offset=".073" stop-color="#1b1f23"/><stop offset=".974" stop-color="#363c42"/></linearGradient></defs></svg>
